X: 1
T: Miss Rough of Longbank
C: Scott Cameron
R: jig
Z: 2017 John Chambers <jc:trillian.mit.edu>
S: Printed set from Nicol McLaren via Meinhard Reiser
M: 6/8
L: 1/8
K: A
E |:\
"A"A2A "E7"Bcd | "A"ecA ABc | "Bm"d2d FGA | "E"BGE "E7"EFG |\
"A"A2A "E7"Bcd | "A"ecA "F#m"ABc | "Bm"d2d "E7"EFG | "A"A3 [1 A2E :|2 "A"Afg ||
"F#m"a3 fga | "C#m"gec "A7"cde | "D"f2f "E"def | "A"ecA "E"A2e |\
"F#m"a3 fga | "C#m"gec "A"c2a | "E"gfe "B"fe^d | "E"e3 efg |
"F#m"a3 fga | "C#m"gec "A7"cde | "D"f2f "E"def | "A"ecA "A7"Ace |\
"D"fef "C#7"gfg | "F#m"agf "A"edc | "Bm"Bdc "E7"BAG | "A"A3 A2 |]
